X:1
T:Cavalleria Rusticana
T:Cavalleria Rusticana
T:Intermezzo Transcription pour piano
T:P. Mascagni
C:P. Mascagni
%%score { ( 1 2 ) | ( 3 4 5 ) }
L:1/8
Q:1/4=56
M:3/4
K:F
V:1 treble nm="Piano" snm="Pno."
V:2 treble 
V:3 treble 
V:4 treble 
V:5 treble 
V:1
!pp!"^Andante sostenuto""_espressivo" (f2 a2 c'2) | (c'3 b ag | d'f a4 |!<(! g2)!<)!!>(! (a4-!>)! | %4
 afed!>(! d'>=b!>)! | c'4)!>(! _b>d!>)! | (a2 g2)"_dolce" (5:4:5(b/c'/b/d/f/) | a3 g f(!>!d'- | %8
 d'!>(!.c'!>)!.=b"_dim.".a.g.f) |!pp! (f/e/g/A/ e3 d | c4- c) z |!pp! x2 x2 x2 | z (!>!c'2 =b ae) | %13
"_dolcissimo" x2 x2 x2 | z (!>!c'2 =b ae) | (e2!<(! c'2) e2!<)! | (e"_cresc."d =bagc | %17
 fA!p!!>(! e3 d!>)! | [Ec]4-) [Ec] z |!f! ([Aa]4 [cc']2 | [Ff]4"_cresc." [Aa]2 | %21
 ([Dd]2) !tenuto![dd']!tenuto![cc'] [Bb][Ff] | [Aa]4 [Gg]2) | ([Bb]4 [Dd]2 | [Aa]2 [cc']2) [Ff]2 | %25
 ([Aa]4 [Gg]2 | [Ff]6) | ([dd']2 [dd'][cc'][Bb][Ff] | [Aa]4 [Gg]2) | ([Bb]2 [Bb][Aa][Gg][Dd] | %30
 [Ff]4 [Ee]2) |"^espressivo" [Ff]2 [Gg][Aa] [Bb]/[cc']/[dd']/[ee']/ | %32
 [ff']3 !tenuto![ff'] !tenuto![ee']!tenuto![dd'] |!>(! [Aa]2 ([cc']2!>)! [Ee]2) | %34
 [Ff]3!mf! !>![ff'] !>![ff']!>![ff'] | !>![ff']3 !>![ff']"_cresc." !>![ff']!>![ff'] | %36
 [ff']3 !tenuto![ff'] !tenuto![ee']!tenuto![dd'] | [Aa]2 ([cc']2 [Ee]2) | %38
 [Ff]3!f! !>![ff'] !>![ff']!>![ff'] | !>![ff']3"_cresc." !>![ff'] !>![ff']!>![ff'] | %40
 [ff']3 !tenuto![ff'] !tenuto![ee']!tenuto![dd'] | [Aa]2 ([cc']2 [Ee]2) | %42
"^rall." [Ff]3!p! [Ee]"^e" [Ff][Gg] |"^dim.  sempre" [Aa]3 [Ff] [Aa][dd'] | %44
 [dd']3 [Bb] [dd'][ff'] | [aa']6 | .[Acf] z!pp! .[Acfa] z .[Acfa] z |!ppp! .[ac'f'a'] z z2 z2 |] %48
V:2
 c6 | d6 | d2 c2 d2 | e2 e4 | d4 d2 | c4 _B2 | B4 x2 | B4 A2 | d4 .[Gd]2 | [Gc]A F4 | G4- G x | %11
 ([_Bd]2 [ce]2{/g} !>![df]2 | [ce]6) | ([_Bd]2 [ce]2{/g} !>![df]2 | [ce]6) | c4 c2 | A2 x4 | %17
 F2 F4 | x6 | x6 | x6 | x6 | x6 | x6 | x6 | x6 | x6 | x6 | x6 | x6 | x6 | x6 | x6 | x5 .[GBc] | %34
 x6 | x6 | x6 | x5 .[GBc] | x6 | x6 | x6 | x5 .[GBc] | x6 | x6 | x6 | x6 | x6 | x6 |] %48
V:3
 A6 | [DF]6 | [DF]2 [FA]4 | [EG]2 [EA]4 | [FA]4 !arpeggio![F=B]2 | (F2 E2) [DF]2 | %6
 [CE]4 [G,B,DF]2 | E4 [FA]2 | [FG]4[K:bass] D2 | C-C x4 |!ped! E4- E z!ped-up! | %11
 ([_B,D]2 [A,C]2 [G,B,]2 | [A,C]6) | ([_B,D]2 [A,C]2 [G,B,]2 | [A,C]6) | [G,CE]4 [^F,CE]2 | %16
 C2 [=B,D]2 [G,C]2 | [D,A,C]2 [G,=B,]4 |!ped! [C,G,C]4- [C,G,C] z!ped-up! | %19
 !arpeggio!.[F,,F,].[F,A,C].[A,CF][I:staff -1][cf][I:staff +1] (!>!E,.[G,C] | %20
 !arpeggio!.[D,,D,]).[D,F,A,].[F,A,D][I:staff -1].[Ad][I:staff +1] (!>!C,.[E,A,] | %21
 z [D,F,B,]2 [D,F,B,] z [D,F,B,] | %22
 !arpeggio!.[C,,C,]).[E,B,C].[B,CE][I:staff -1].[Be][I:staff +1] z[I:staff -1] .[Be] | %23
[I:staff +1] !arpeggio!.[G,,G,].[G,B,D].[B,DG][I:staff -1].[Bd][I:staff +1] z[I:staff -1] .[Ad] | %24
[I:staff +1] z [F,A,C]2 [A,CF] (!>!D,[F,A,D] | %25
 C,).[F,A,C].[A,CF][I:staff -1].[cf][I:staff +1] z[I:staff -1] .[Be] | %26
[I:staff +1] !arpeggio!.[F,,F,].[F,A,C].[A,CF][I:staff -1].[Ac][I:staff +1] .[A,,A,][I:staff -1].[CF] | %27
[I:staff +1] z [F,B,D]2 [F,B,D] z [G,B,D] | %28
 !arpeggio![C,,C,].[E,B,C].[B,CE][I:staff -1].[Bc][I:staff +1] z[I:staff -1] .[Bc] | %29
[I:staff +1] z [F,B,D]2 [F,B,D] B,,.[D,G,] | %30
 .G,,.[G,B,].[B,C][I:staff -1].[GB][I:staff +1] z[I:staff -1] .[GBc] | %31
[I:staff +1] z [F,A,] z [F,A,] z [D,F,G,] | !>!A,,.[C,F,A,].[F,A,C].[A,CF] !>!G,,.[G,B,DF] | %33
 !>![C,,C,].[C,F,A,].[F,A,C].[A,CF] !arpeggio!.[C,,C,] z | z [A,C] z [A,C] z [F,A,D] | %35
 z [F,A,] z [D,F,B,] z [D,F,B,] | !>!G,,.[D,F,B,].[F,B,D].[B,DF] !>![B,,,B,,].[G,B,DF] | %37
 !>![C,,C,].[C,F,A,].[F,A,C].[A,CF] !arpeggio!.[C,,C,] z | z [A,C] z [A,C] z [F,A,D] | %39
 z [F,A,] z [D,F,B,] z [D,F,B,] | !>!G,,.[D,F,B,].[F,B,D].[B,DF] !>![B,,,B,,].[G,B,DF] | %41
 !>![C,,C,].[C,F,A,].[F,A,C].[A,CF] !arpeggio!.[C,,C,] z | %42
 !arpeggio!.[F,,F,].[F,A,C].[A,CF] z z [F,A,C] | !arpeggio!.[D,,D,].[D,F,A,].[F,A,D] z z [D,F,A,] | %44
 !arpeggio!.[B,,,B,,].[D,F,B,].[F,B,D] z z [G,B,DF] | %45
!ped! !arpeggio!.[F,,,F,,] .[C,F,A,].[F,A,C].[A,CF][I:staff -1] .[CFA].[FAc] | %46
[I:staff +1] z2 .[F,CF] z .[F,CF] z | .[F,,,F,,] z!ped-up! z2 z2 |] %48
V:4
 (F2 E2 D2) | (G,4 A,B, | =B,2 C2 B,2 | C2) ^C4 | D4 G,2 | [CG]4 G,2 | x6 | (C2!<(! ^C2!<)! D2) | %8
 G,4[K:bass] (A,=B, | C[D,A,C] [G,=B,]4) | C4- C x | x6 | x6 | x6 | x6 | x6 | F,4 E,2 | x6 | %18
 z2{/G,,,} .G,,2{/C,,,} C,,2 | .F,, x3 E,2 | .D,, x3 C,2 | B,,4 G,,2 | .C,, x3 (!>!C,2 | %23
 .G,,) x3 (!>!B,,2 | [F,,F,]4) D,2 | C, x3 (!>![C,,C,]2 | .F,,) x3 .A,, x | (B,,4 G,,2 | %28
 C,,) x3 (!>!E,2 | [D,,D,]4 B,,2 | .G,,) x3 !>![C,,C,]2 |{/D,,} (D,2 C,2 B,,2) | x6 | x6 | %34
{/F,,} (F,2 E,2 D,2 | C,2 B,,2 A,,2) | x6 | x6 |{/F,,} (F,2 E,2 D,2 | C,2 B,,2 A,,2) | x6 | x6 | %42
 .F,, x3 (!>!E,2 | .D,,) x3 (!>!C,2 | .B,,,) x3 !>!G,,2 | x6 | x6 | x6 |] %48
V:5
 x6 | x6 | x6 | x6 | x6 | x6 | x6 | x6 | x4[K:bass] x2 | x6 | z2 .[G,,,G,,]2 .[C,,,C,,]2 | x6 | %12
 x6 | x6 | x6 | x6 | x6 | x6 | x6 | x6 | x6 | x6 | x6 | x6 | x6 | x6 | x6 | x6 | x6 | x6 | x6 | %31
 x6 | x6 | x6 | x6 | x6 | x6 | x6 | x6 | x6 | x6 | x6 | x6 | x6 | x6 | x6 | x6 | x6 |] %48

